X:1
T:Poi che queste
T:Poi che queste
T:Ludovico Bellanda Veronese
T:Source : Musische di L.Bellanda---Venetia---G.Vincenti---1607. Editor : André Vierendeels (29/06/15).
T:Notes : Original clefs : C4, F4 Editorial accidentals above the staff Figures in BC are notated in original print Lyrics by Alberto Fabriani 
C:Ludovico Bellanda Veronese
%%score 1 2
L:1/8
Q:1/4=79
M:4/4
K:C
V:1 treble-8 nm="Tenor" snm="T"
V:2 bass nm="BC" snm="BC"
V:1
 A2 AA c4- | cBBB _B3 G | A4 A4 | z2 A2 d4- | d2 ^c2 c>d e2- | e2 ^G2 _B4 | ^G2 G2 A4- | A4 A4 | %8
w: Poi che que- st'oc-|* ch'in- te- ne- rir non|pon- no,|con- an-|* gol- ci- * o|_ _ pian-|to il du-|* ro|
 A4 c4- | c2 BA BG A2 | G8 | E6 EE | E3 E EE E2- | E2 E2 E4 | E8 | z2 z e cBdG | B4 A4 | %17
w: fen de|_ la ni- mi- ca mi-|a,|mor- te gli|chiu- da'in sem- pi- ter-|* no son-|no,|ma la spie- ta- ta'e|ri- a|
 z AAA AB c2- | cB d4 ^c2 | d4 d4 | z2 BB c2 cB | c4 BEEE | A3 G G4 | e6 d/c/B/A/ | ^G2 G2 z2 c2 | %25
w: a gl'ul- ti- mi so- spir|_ be- ni- gn'al-|me- no,|la- ce- ran- do- m'il|se- no, il de- si-|a- to fin|(las- * * * *|* so) mi|
 c6 B2 | A8 | z4 F4 | ^F4 F2 F2- | F2 ^FF G/A/B/c/ G/A/B/G/ | A/B/c/d/ A/d/A/B/ cc z2 | %31
w: di- *|a,|ahi-|ch'à va so-|* lo ba- le- * * * * * * *|* * * * * * * * * no-|
 z2 A2 d3 B | d/c/B/A/ G2 F4 | c>d e>c d4 | c4 e4 | dcBA BA z2 | F6 F2 | F4 E4 | DABc d2 d2 | %39
w: che'n me mi|bras- * * * * se|da sue ci- gli'A- mo-|re, fa|si ve- dria re- pen- te|ce- ner|di mor-|te,- il ful- mi- na- to,|
 z GAB c4- | c2 B/A/G/^F/ ^G4 | A8 :| %42
w: il ful- mi- na-|* to _ _ _ co-|re.|
V:2
 A,,8 |"^b" E,4 G,4 | D,6 D,2 | ^F,6 F,2 | ^G,4 A,4 |"^b6" E,4 D,4 |"^#" E,4 ^C,4 |"^#" D,4 B,,4 | %8
"^-natural" A,,8 |"^#" D,8 | G,,4 E,,4- | E,,2 ^F,,2 ^G,,4 | A,,4 ^G,,2 A,,B,, | C,D, E,^F, ^G,,4 | %14
"^#" A,,8 | C,4 C,2 B,,2 |"^6            5""^6" D,8 |"^#" D,6 E,2 | ^F,2 G,2 A,2 A,,2 | D,4 D,4 | %20
"^3             4" E,4 E,4 |"^4           3" E,4 E,4 | ^C,2 D,2 G,,4 | A,,2 B,,2 C,2 D,2 | %24
"^3             4" E,8 |"^3" E,8 |"^#" A,,8 |"^#" D,6 C,2 |"^#""^#" B,,4 B,,4- | %29
"^#" B,,2 B,,2 E,4 | D,4 C,4 |"^#" D,4 G,,4- | G,,2 C,2 F,,4 | A,,2 C,4 B,,2 | C,4 C,4 | %35
"^#""^#" D,2 E,2 A,,2 z2 | _B,,8 |"^#" D,4 A,,4 |"^#""^6" D,4 B,,4 | C,4 A,,4 |"^#" E,8 | %41
"^#" A,,8 :| %42

